X:1
T:Orange Blossom Waltz
T:Orange Blossom Waltz
T:Anonymous   New York: Atwill, 1840.
T:respectfully Dedicated to Miss Mary Jones 
T:Public Domain - https://imslp.org/wiki/Orange_Blossom_Waltz_(Anonymous)
T:Public Domain - https://imslp.org/wiki/Orange_Blossom_Waltz_(Anonymous)
C:Anonymous  	New York: Atwill, 1840.
Z:Public Domain - https://imslp.org/wiki/Orange_Blossom_Waltz_(Anonymous)
%%score { 1 | ( 2 3 ) }
L:1/8
Q:1/4=116
M:3/4
K:Eb
V:1 treble nm="Piano" snm="Pno."
V:2 bass 
V:3 bass 
V:1
"^Allegretto" !>![GB]>c [GB]2 (!>![Ge]2 | [GB]2) (!>![eg]2 .B2) | z2 (!>![ac']2 [gb]2 | %3
 .[eg]2){/=A} B>c B>=A | .B2 (!>![fa]2 [eg]2 | .[df]2){/G} A>B A>G | A2 (!>![Bg]2 [Af]2 | %7
 .[Ge]2) [GB]>c [GB]2 | !>![GB]>c [GB]2 (!>![Ge]2 | .[GB]2) (!>![eg]2 .B2) | z2 (!>![ac']2 [gb]2 | %11
 .[eg]2){/=A} B>cB>=A | A2 (!>![Bg]2 [Af]2 | .[Ge]2){/G} A>BA>G | .A2 (!>![Bg]2 [Af]2 | [Ge]4) || %16
 f(3(g/f/=e/) | f[bd'][=ac'][gb][fa][eg] | [df]2 [Bd]2 [df]>[eg] | [df]2 [ce]2 [=Ac]>[eg] | %20
 [df]2 [Bd]2 f(3(g/f/=e/) | f[bd'][=ac'][gb][fa][eg] | [df]2 [Bd]2 [df]>[eg] | [df]2 [ce]2 =A>c | %24
 B4 f(3(g/f/=e/) | f[bd'][=ac'][gb][fa][eg] | [df]2 [Bd]2 [df]>[eg] | [df]2 [ce]2 [=Ac]>[eg] | %28
 [df]2 [Bd]2 f(3(g/f/=e/) | f[bd'][=ac'][gb][fa][eg] | [df]2 [Bd]2 [df]>[eg] | [df]2 [ce]2 =A>c | %32
 B4 || [GB]2 | !>![GB]>c [GB]2 (!>![Ge]2 | .[GB]2) (!>![eg]2 .B2) | z2 (!>![ac']2 [gb]2 | %37
 .[eg]2){/=A} .B>c.B>=A | .B2 (!>![fa]2 [eg]2 | .[df]2){/A} A>BA>G | .A2 (!>![Bg]2 [Af]2 | %41
 .[Ge]2) [GB]>c [GB]2 | !>![GB]>c [GB]2 (!>![Ge]2 | .[GB]2) (!>![eg]2 .B2) | z2 (!>![ac']2 [gb]2 | %45
 .[eg]2){/=A} B>cB>=A | .B2 (!>![fa]2 [eg]2 | .[df]2){/G} A>BA>G | .A2 (!>![Bg]2 [Af]2 | [Ge]4) || %50
[K:Ab] e2 | =de=BcGA | GA !>!f2 e2 | cd=AB^FG | ^FG !>!=f2 e2 | =de=BcGA | =ef !>!g3 f | fedBGE | %58
 A4 e2 | =de=BcGA | GA !>!f2 e2 | cd=AB^FG | ^FG !>!=f2 e2 | =de=Bcga | =ef !>!g3 f | fedBGE | %66
 A4 ||[K:Eb] [GB]2 | !>![GB]>c [GB]2 (!>![Ge]2 | .[GB]2) (!>![eg]2 .B2) | z2 (!>![ac']2 [gb]2 | %71
 .[eg]2){/=A} .B>c.B>=A | .B2 (!>![fa]2 [eg]2 | .[df]2){/G} A>BA>G | .A2 (!>![Bg]2 [Af]2 | %75
 .[Ge]2) [GB]>c [GB]2 | !>![GB]>c [GB]2 (!>![Ge]2 | .[GB]2) (!>![eg]2 .B2) | z2 (!>![ac']2 [gb]2 | %79
 .[eg]2){/=A} B>cB>=A | .B2 (!>![fa]2 [eg]2 | .[df]2){/G} A>BA>G | .A2 !>![Bg]2 ([Af]2 | %83
 [Ge]4)!D.C.! |] %84
V:2
 E,,2 [G,B,E]2 [G,B,E]2 | E,2 [G,B,E]2 [G,B,E]2 | E,,2 [G,B,E]2 [G,B,E]2 | E,2 [G,B,E]2 [G,B,E]2 | %4
 B,,2 [G,B,]2 [G,B,]2 | B,,2 [B,D]2 [B,D]2 | B,,2 [B,D]2 [B,D]2 | E,2 [G,B,E]2 [G,B,E]2 | %8
 E,,2 [G,B,E]2 [G,B,E]2 | E,2 [G,B,E]2 [G,B,E]2 | B,,2 [G,B,]2 [G,B,]2 | E,2 [B,DG]2 [B,DG]2 | %12
 B,,2 [B,D]2 [B,D]2 | E,2 [G,B,]2 [G,B,]2 | B,,2 [B,D]2 [B,D]2 | z2 [G,B,E]2 || z2 | %17
 .[B,,B,]2 [F,B,D]2 [F,B,D]2 | [B,,B,]2 [F,B,D]2 [F,B,D]2 | [F,,F,]2 [F,=A,C]2 [F,A,C]2 | %20
 [B,,B,]2 [F,B,D]2 [F,B,D]2 | [B,,B,]2 [F,B,D]2 [F,B,D]2 | [B,,B,]2 [F,B,D]2 [F,B,D]2 | %23
 [F,,F,]2 [F,=A,E]2 [F,A,E]2 | [B,D]2 B,,2 z2 | [B,,B,]2 [F,B,D]2 [F,B,D]2 | %26
 [B,,B,]2 [F,B,D]2 [F,B,D]2 | [F,,F,]2 [F,=A,C]2 [F,A,C]2 | [B,,B,]2 [F,B,D]2 [F,B,D]2 | %29
 [B,,B,]2 [F,B,D]2 [F,B,D]2 | [B,,B,]2 [F,B,D]2 [F,B,D]2 | [F,,F,]2 [F,=A,C]2 [F,A,C]2 | %32
 [B,D]2 B,,2 || z2 | E,,2 [G,B,E]2 [G,B,E]2 | E,2 [G,B,E]2 [G,B,E]2 | E,,2 [G,B,E]2 [G,B,E]2 | %37
 E,2 [G,B,E]2 [G,B,E]2 | B,,2 [B,D]2 [B,D]2 | B,,2 [B,D]2 [B,D]2 | B,,2 [B,D]2 [B,D]2 | %41
 E,2 [G,B,E]2 [G,B,E]2 | E,,2 [G,B,E]2 [G,B,E]2 | E,2 [G,B,E]2 [G,B,E]2 | E,,2 [G,B,E]2 [B,E]2 | %45
 B,,2 [G,B,E]2 [G,B,E]2 | B,,2 [B,D]2 [B,D]2 | B,,2 [B,D]2 [B,D]2 | B,,2 [B,D]2 [B,D]2 | %49
 z2 [G,B,E]2 ||[K:Ab] z2 | A,,2 [E,A,C]2 [E,A,C]2 | C,2 [E,A,C]2 [E,A,C]2 | E,2 [G,B,D]2 [G,B,D]2 | %54
 E,2 [G,B,D]2 [G,B,D]2 | A,,2 [E,A,C]2 [E,A,C]2 | D,2 [F,A,D]2 [F,A,D]2 | E,2 [G,B,D]2 [G,B,D]2 | %58
 [A,C]2 A,,2 z2 | A,,2 [E,A,C]2 [E,A,C]2 | C,2 [E,A,C]2 [E,A,C]2 | E,2 [G,B,D]2 [G,B,D]2 | %62
 E,2 [G,B,D]2 [G,B,D]2 | A,,2 [E,A,C]2 [E,A,C]2 | D,2 [F,A,D]2 [F,A,D]2 | E,2 [G,B,D]2 [G,B,D]2 | %66
 [A,C]2 A,,2 ||[K:Eb] z2 | E,,2 [G,B,E]2 [G,B,E]2 | E,2 [G,B,E]2 [G,B,E]2 | %70
 E,,2 [G,B,E]2 [G,B,E]2 | E,2 [G,B,E]2 [G,B,E]2 | B,,2 [B,D]2 [B,D]2 | B,,2 [B,D]2 [B,D]2 | %74
 B,,2 [B,D]2 [B,D]2 | E,2 [G,B,E]2 [G,B,E]2 | E,,2 [G,B,E]2 [G,B,E]2 | E,2 [G,B,E]2 [G,B,E]2 | %78
 E,,2 [G,B,E]2 [B,E]2 | E,2 [G,B,E]2 [G,B,E]2 | B,,2 [B,D]2 [B,D]2 | B,,2 [B,D]2 [B,D]2 | %82
 B,,2 [B,D]2 [B,D]2 | z2 [G,B,E]2 |] %84
V:3
 x6 | x6 | x6 | x6 | x6 | x6 | x6 | x6 | x6 | x6 | x6 | x6 | x6 | x6 | x6 | E,4 || x2 | x6 | x6 | %19
 x6 | x6 | x6 | x6 | x6 | x6 | x6 | x6 | x6 | x6 | x6 | x6 | x6 | x4 || x2 | x6 | x6 | x6 | x6 | %38
 x6 | x6 | x6 | x6 | x6 | x6 | x6 | x6 | x6 | x6 | x6 | E,4 ||[K:Ab] x2 | x6 | x6 | x6 | x6 | x6 | %56
 x6 | x6 | x6 | x6 | x6 | x6 | x6 | x6 | x6 | x6 | x4 ||[K:Eb] x2 | x6 | x6 | x6 | x6 | x6 | x6 | %74
 x6 | x6 | x6 | x6 | x6 | x6 | x6 | x6 | x6 | E,4 |] %84

